public/editor-src/editor/icons/editor/user-details.svg

<svg id="nc-user-details" width="16px" height="16px" viewBox="0 0 16 16" version="1.1" xmlns="http://www.w3.org/2000/svg" xmlns:xlink="http://www.w3.org/1999/xlink">
    <g stroke="none" stroke-width="1" fill="currentColor" fill-rule="evenodd">
        <path 
        d="M8.11040009,0.00169895217 C10.0910066,0.117567425 11.6302371,1.81442903 11.6,3.8486655 L11.6,3.8486655 L11.6,5.53955867 C11.5983335,6.98299508 10.7765497,8.29305258 9.49640007,8.89304039 L9.49640007,8.89304039 L9.65720007,9.72371934 C9.74429966,10.1768313 10.0714429,10.5417891 10.5044001,10.6688474 L10.5044001,10.6688474 L14.13,12.4379946 C14.6448052,12.5890024 14.9997621,13.0715157 14.9999993,13.6206353 L14.9999993,13.6206353 L14.9999993,15.3846426 C14.9999993,15.7244732 14.7313709,15.9999604 14.4,15.9999604 L14.4,15.9999604 L1.60000018,15.9999604 C1.26862933,15.9999604 0.999999254,15.7244732 0.999999254,15.3846426 L0.999999254,15.3846426 L0.999999254,13.6206353 C0.999702375,13.0710595 1.3547673,12.5878972 1.87000017,12.4367639 L1.87000017,12.4367639 L5.49560013,10.6676168 C5.92822636,10.5407602 6.2552956,10.17636 6.34280012,9.72371934 L6.34280012,9.72371934 L6.50360012,8.89427102 C5.22305582,8.29409767 4.40119764,6.98344077 4.40000015,5.53955867 L4.40000015,5.53955867 L4.40000015,3.69360543 C4.39954194,2.69451518 4.79394364,1.73789014 5.493144,1.04217475 C6.19234437,0.346459361 7.13663935,-0.0289399295 8.11040009,0.00169895217 Z M13,13 L9,13 L9,15 L13,15 L13,13 Z"  
        fill="currentColor" 
        fill-rule="nonzero"
        ></path>
    </g>
</svg>

<svg xmlns="http://www.w3.org/2000/svg" width="16" height="16"><path fill="currentColor" fill-rule="nonzero" d="M8.11.002c1.981.116 3.52 1.812 3.49 3.847v1.69c-.002 1.444-.823 2.754-2.104 3.354l.161.83c.087.454.414.819.847.946l3.626 1.769c.515.151.87.634.87 1.183v1.764c0 .34-.269.615-.6.615H1.6a.608.608 0 0 1-.6-.615V13.62c0-.55.355-1.033.87-1.184l3.626-1.77a1.22 1.22 0 0 0 .847-.943l.16-.83c-1.28-.6-2.102-1.91-2.103-3.354V3.694c0-1 .394-1.956 1.093-2.652A3.551 3.551 0 0 1 8.11.002ZM13 13H9v2h4v-2Z"/></svg>
